svg/color/bean.svg

<?xml version="1.0" encoding="UTF-8" ?>
<!DOCTYPE svg PUBLIC "-//W3C//DTD SVG 1.1//EN" "http://www.w3.org/Graphics/SVG/1.1/DTD/svg11.dtd">
<svg width="250pt" height="250pt" viewBox="0 0 250 250" version="1.1" xmlns="http://www.w3.org/2000/svg">
<g id="#ffffffff">
<path fill="#ffffff" opacity="1.00" d=" M 0.00 0.00 L 116.59 0.00 C 103.65 1.23 90.83 4.03 78.73 8.80 C 64.19 14.84 50.56 23.23 39.09 34.06 C 30.85 42.31 23.15 51.21 17.40 61.42 C 7.01 78.29 1.50 97.89 0.00 117.56 L 0.00 0.00 Z" />
<path fill="#ffffff" opacity="1.00" d=" M 132.44 0.00 L 250.00 0.00 L 250.00 116.59 C 248.85 104.44 246.31 92.41 242.03 80.98 C 234.57 62.12 223.29 44.46 207.66 31.35 C 187.13 12.69 160.00 1.98 132.44 0.00 Z" />
<path fill="#ffffff" opacity="1.00" d=" M 140.03 36.09 C 146.24 33.24 152.39 30.08 159.06 28.44 C 156.78 36.87 152.86 44.74 150.14 53.03 C 137.18 87.41 124.48 121.90 111.39 156.23 C 105.95 172.33 99.07 187.91 93.77 204.06 C 91.59 210.08 88.81 215.89 87.17 222.11 C 86.50 221.38 85.75 220.71 85.26 219.85 C 80.17 209.97 75.54 199.77 72.79 188.97 C 66.13 168.52 63.54 146.53 66.85 125.20 C 69.74 105.71 78.04 86.90 91.10 72.09 C 104.49 56.66 121.62 44.76 140.03 36.09 Z" />
<path fill="#ffffff" opacity="1.00" d=" M 154.99 71.69 C 167.27 81.97 176.89 95.54 182.19 110.68 C 186.17 122.73 185.85 136.26 181.04 148.02 C 178.15 156.06 172.75 162.86 167.43 169.41 C 157.48 179.69 146.04 188.54 133.59 195.59 C 124.14 201.45 113.81 205.60 103.95 210.66 C 105.16 205.09 107.91 200.05 109.55 194.62 C 118.41 169.55 128.14 144.78 136.98 119.70 C 143.25 103.79 148.46 87.49 154.99 71.69 Z" />
<path fill="#ffffff" opacity="1.00" d=" M 0.00 133.41 C 2.18 160.94 13.34 187.66 31.70 208.33 C 42.98 220.66 56.56 230.87 71.59 238.20 C 86.14 244.63 101.66 248.95 117.57 250.00 L 0.00 250.00 L 0.00 133.41 Z" />
<path fill="#ffffff" opacity="1.00" d=" M 246.17 156.01 C 247.73 150.45 248.26 144.67 250.00 139.16 L 250.00 250.00 L 133.41 250.00 C 150.30 248.44 167.04 244.12 182.07 236.16 C 213.64 220.32 237.53 190.20 246.17 156.01 Z" />
</g>
<g id="#3eb94eff">
<path fill="#3eb94e" opacity="1.00" d=" M 116.59 0.00 L 132.44 0.00 C 160.00 1.98 187.13 12.69 207.66 31.35 C 223.29 44.46 234.57 62.12 242.03 80.98 C 246.31 92.41 248.85 104.44 250.00 116.59 L 250.00 139.16 C 248.26 144.67 247.73 150.45 246.17 156.01 C 237.53 190.20 213.64 220.32 182.07 236.16 C 167.04 244.12 150.30 248.44 133.41 250.00 L 117.57 250.00 C 101.66 248.95 86.14 244.63 71.59 238.20 C 56.56 230.87 42.98 220.66 31.70 208.33 C 13.34 187.66 2.18 160.94 0.00 133.41 L 0.00 117.56 C 1.50 97.89 7.01 78.29 17.40 61.42 C 23.15 51.21 30.85 42.31 39.09 34.06 C 50.56 23.23 64.19 14.84 78.73 8.80 C 90.83 4.03 103.65 1.23 116.59 0.00 M 140.03 36.09 C 121.62 44.76 104.49 56.66 91.10 72.09 C 78.04 86.90 69.74 105.71 66.85 125.20 C 63.54 146.53 66.13 168.52 72.79 188.97 C 75.54 199.77 80.17 209.97 85.26 219.85 C 85.75 220.71 86.50 221.38 87.17 222.11 C 88.81 215.89 91.59 210.08 93.77 204.06 C 99.07 187.91 105.95 172.33 111.39 156.23 C 124.48 121.90 137.18 87.41 150.14 53.03 C 152.86 44.74 156.78 36.87 159.06 28.44 C 152.39 30.08 146.24 33.24 140.03 36.09 M 154.99 71.69 C 148.46 87.49 143.25 103.79 136.98 119.70 C 128.14 144.78 118.41 169.55 109.55 194.62 C 107.91 200.05 105.16 205.09 103.95 210.66 C 113.81 205.60 124.14 201.45 133.59 195.59 C 146.04 188.54 157.48 179.69 167.43 169.41 C 172.75 162.86 178.15 156.06 181.04 148.02 C 185.85 136.26 186.17 122.73 182.19 110.68 C 176.89 95.54 167.27 81.97 154.99 71.69 Z" />
</g>
</svg>

<?xml version="1.0" encoding="utf-8"?>
<!-- Generator: Adobe Illustrator 26.0.3, SVG Export Plug-In . SVG Version: 6.00 Build 0)  -->
<svg version="1.1" id="Layer_1" xmlns="http://www.w3.org/2000/svg" xmlns:xlink="http://www.w3.org/1999/xlink" x="0px" y="0px"
	 viewBox="0 0 250 250" style="enable-background:new 0 0 250 250;" xml:space="preserve">
<style type="text/css">
	.st0{fill:#FFFFFF;}
	.st1{fill:#3EB94E;}
</style>
<g id="_x23_ffffffff">
	<path class="st0" d="M140,36.1c6.2-2.8,12.4-6,19-7.6c-2.3,8.4-6.2,16.3-8.9,24.6c-13,34.4-25.7,68.9-38.8,103.2
		c-5.4,16.1-12.3,31.7-17.6,47.8c-2.2,6-5,11.8-6.6,18.1c-0.7-0.7-1.4-1.4-1.9-2.3c-5.1-9.9-9.7-20.1-12.5-30.9
		c-6.7-20.4-9.2-42.4-5.9-63.8c2.9-19.5,11.2-38.3,24.2-53.1C104.5,56.7,121.6,44.8,140,36.1z"/>
	<path class="st0" d="M155,71.7c12.3,10.3,21.9,23.8,27.2,39c4,12.1,3.7,25.6-1.2,37.3c-2.9,8-8.3,14.8-13.6,21.4
		c-9.9,10.3-21.4,19.1-33.8,26.2c-9.4,5.9-19.8,10-29.6,15.1c1.2-5.6,4-10.6,5.6-16c8.9-25.1,18.6-49.8,27.4-74.9
		C143.2,103.8,148.5,87.5,155,71.7z"/>
</g>
<g id="_x23_3eb94eff">
	<path class="st1" d="M116.6,0h15.9c27.6,2,54.7,12.7,75.2,31.4C223.3,44.5,234.6,62.1,242,81c4.3,11.4,6.8,23.5,8,35.6v22.6
		c-1.7,5.5-2.3,11.3-3.8,16.8c-8.6,34.2-32.5,64.3-64.1,80.2c-15,8-31.8,12.3-48.7,13.8h-15.8c-15.9-1.1-31.4-5.4-46-11.8
		c-15-7.3-28.6-17.5-39.9-29.9C13.3,187.7,2.2,160.9,0,133.4v-15.9c1.5-19.7,7-39.3,17.4-56.1c5.8-10.2,13.5-19.1,21.7-27.4
		C50.6,23.2,64.2,14.8,78.7,8.8C90.8,4,103.7,1.2,116.6,0 M140,36.1c-18.4,8.7-35.5,20.6-48.9,36C78,86.9,69.7,105.7,66.8,125.2
		c-3.3,21.3-0.7,43.3,5.9,63.8c2.8,10.8,7.4,21,12.5,30.9c0.5,0.9,1.2,1.5,1.9,2.3c1.6-6.2,4.4-12,6.6-18.1
		c5.3-16.1,12.2-31.7,17.6-47.8c13.1-34.3,25.8-68.8,38.8-103.2c2.7-8.3,6.6-16.2,8.9-24.6C152.4,30.1,146.2,33.2,140,36.1
		 M155,71.7c-6.5,15.8-11.7,32.1-18,48c-8.8,25.1-18.6,49.9-27.4,74.9c-1.6,5.4-4.4,10.5-5.6,16c9.9-5.1,20.2-9.2,29.6-15.1
		c12.4-7.1,23.9-15.9,33.8-26.2c5.3-6.6,10.7-13.4,13.6-21.4c4.8-11.8,5.1-25.3,1.2-37.3C176.9,95.5,167.3,82,155,71.7z"/>
</g>
</svg>
